X: 2433
T: the NIGGER IN THE PEA PATCH
R: Jig.
B: Kerr's v.2 p.49 #433
Z: 2016 John Chambers <jc:trillian.mit.edu>
M: C
L: 1/8
K: D
(A,B,C) !segno!|\
D2C2 D2CE | zCDE FDEC |\
zDCE D2 (3(ABc) | d<B zG AFGE |\
D8- |
DD zE FDED |\
zDD2 D4 | d<B zA AFGE ||\
zDd2 c4 | (B>c)(B>A) FA zA |\
z2d2 z2c2 |
(B>c)(B>A) FDED |\
zDd2 c4 | (B>c)(B>A) FA z(d |\
f)(dg)(e f)(de)(c | d)(cd)(B A)(F"_D.C."G)E !segno!:|
